!!!!SEGMENT: pl-sa--177-a-v-7--001-001_luna-georgius--missa-ex-d-sinfonia.krn
!!!cenid: 17xx:465
!!!COM: Luna, Georgius
!!!COM-rismID: pe41010079
!!!CDT:
!!!CNT:
!!!OPR: Missa ex D
!!!OTL: Sinfonia
!!!OMV: 001
!!!PDT:
!!!AGN: Sacred; Mass
!!!YEC: Copyright 2022 Narodowy Instytut Fryderyka Chopina (https://polishscores.org)
!!!YEM: License CC-BY-4.0 (https://creativecommons.org/licenses/by/4.0)
!!!SMS-siglum: PL-SA
!!!SMS-shelfmark: 177/A V 7
!!!SMS-shelfwork: 001-001 M
!!!SMS-variant:
!!!SMS-altvar:
!!!NIFC-rismSourceID: 1001035883
!!!NIFC-rismChildID: 1001035883
!!!NIFC-islandoraID: none
!!!URL-pdf-islandora:
!!!URL-scan: https://bc.bdsandomierz.pl/dlibra/publication/1512/edition/1480/content @EN{Scan in the Sandomierz Diocese Digital Library} @PL{Skany w portalu Cyfrowa Biblioteka Diecezjalna w Sandomierzu}
!!!IIIF:
!!!ONB-nifc: UWAGA; części Mszy: Sinfonia, Kyrie, Gloria, Patrem, Sanctus, Benedictus, Agnus, Dona. UWAGA: brak partii cornu primo, cornu secundo
!!!AIN: 2 clrno 2 cor 2 oboe 1 organ 1 soprn 1 tenor 2 violn
!!!OMD:
!!!OMD-mod: Allegro
!!!key: D
**kern	**kern	**kern	**kern	**kern	**kern	**kern	**kern	**kern	**kern	**kern	**dynam
*part11	*part10	*part9	*part8	*part7	*part6	*part5	*part4	*part3	*part2	*part1	*part1
*staff11	*staff10	*staff9	*staff8	*staff7	*staff6	*staff5	*staff4	*staff3	*staff2	*staff1	*
*ICklav	*ICstr	*ICstr	*ICvox	*ICvox	*ICbras	*ICbras	*ICbras	*ICbras	*ICww	*ICww	*
*Iorgan	*Ivioln	*Ivioln	*Itenor	*Isoprn	*Iclrno	*Iclrno	*Icor	*Icor	*Ioboe	*Ioboe	*
*I"Fundamento	*I"Violino Secundo	*I"Violino Primo	*I"Tenor	*I"Canto	*I"Clarino Secundo	*I"Clarino Primo	*I"Cornu Secundo	*I"Cornu Primo	*I"Hobois 2do	*I"Hobois Primo	*
*mI"Basso continuo	*mI"Violino II	*mI"Violino I	*mI"Tenore	*mI"Soprano	*mI"Clarino II	*mI"Clarino I	*mI"Corno II	*mI"Corno I	*mI"Oboe II	*mI"Oboe I	*
*I'bc	*I'vl 2	*I'vl 1	*I'T	*I'S	*I'clno 2	*I'clno 1	*I'cor 2	*I'cor 1	*I'ob 2	*I'ob 1	*
!	!	!	!LO:MO:null:mod=*tacet	!LO:MO:null:mod=*tacet	!	!	!LO:MO:null:mod=*tacet	!LO:MO:null:mod=*tacet	!	!	!
*	*	*	*null	*null	*	*	*null	*null	*	*	*
*clefF4	*clefG2	*clefG2	*clefC4	*clefC1	*clefG2	*clefG2	*clefG2	*clefG2	*clefG2	*clefG2	*
*	*	*	*mclefGv2	*mclefG2	*	*	*	*	*	*	*
*	*	*	*	*	*ITrd-1c-2	*ITrd-1c-2	*	*	*	*	*
*k[f#c#]	*k[f#c#]	*k[f#c#]	*k[f#c#]	*k[f#c#]	*k[f#c#]	*k[f#c#]	*k[f#c#]	*k[f#c#]	*k[f#c#]	*k[f#c#]	*
*D:	*D:	*D:	*D:	*D:	*D:	*D:	*D:	*D:	*D:	*D:	*
*M4/4	*M4/4	*M4/4	*M4/4	*M4/4	*M4/4	*M4/4	*M4/4	*M4/4	*M4/4	*M4/4	*
*met(c)	*met(c)	*met(c)	*met(c)	*met(c)	*met(c)	*met(c)	*met(c)	*met(c)	*met(c)	*met(c)	*
*mmet(c)	*mmet(c)	*mmet(c)	*mmet(c)	*mmet(c)	*mmet(c)	*mmet(c)	*mmet(c)	*mmet(c)	*mmet(c)	*mmet(c)	*
!	!	!	!LO:MO:mod=!LO&colon;TX&colon;a&colon;B&colon;t=TACET	!LO:MO:mod=!LO&colon;TX&colon;a&colon;B&colon;t=TACET	!	!	!	!	!LO:TX:t=P:problem=oznaczenie metryczne C z kropką	!	!
!LO:TX:a:Bi:mod= :t=Allo&colon;	!LO:TX:a:Bi:mod= :t=Allo	!LO:TX:a:Bi:mod= :t=Allo	!LO:TX:a:Bi:t=Tacet\nSinfonia	!LO:TX:a:Bi:t=Sinfonia\nTacet	!LO:TX:a:Bi:mod= :t=Allo	!LO:TX:a:Bi:mod= :t=Allo	!LO:TX:t=P:problem=zgodnie z RISM "cor 1, 2 parts missing"	!LO:TX:t=P:problem=zgodnie z RISM "cor 1, 2 parts missing"	!LO:TX:a:Bi:mod= :t=Allegro	!LO:TX:a:Bi:mod= :t=Allegro	!
8r	8aa\	8aa\	8ryy	8ryy	8r	8r	8ryy	8ryy	8aa\	8aa\	.
=1	=1	=1	=1	=1	=1	=1	=1	=1	=1	=1	=1
!	!LO:MO:mod=8aaL	!LO:MO:mod=8aaL	!	!	!	!	!	!	!	!	!
8D\L	8.aa\L	8.aa\L	1ryy	1ryy	4ff#\	4aa\	1ryy	1ryy	8aa\L	8aa\L	.
!	!LO:MO:null:mod=16ff#L	!LO:MO:null:mod=16ff#L	!	!	!	!	!	!	!	!	!
8E\	.	.	.	.	.	.	.	.	16ff#\L	16ff#\L	.
!	!LO:MO:mod=16ggJJ	!LO:MO:mod=16ggJJ	!	!	!	!	!	!	!	!	!
.	32ff#\LL	32ff#\LL	.	.	.	.	.	.	16gg\JJ	16gg\JJ	.
!	!LO:MO:mod=.	!LO:MO:mod=.	!	!	!	!	!	!	!	!	!
.	32gg\JJJ	32gg\JJJ	.	.	.	.	.	.	.	.	.
8F#\	8aa\L	8aa\L	.	.	8r	8r	.	.	8aa\L	8aa\L	.
8G\J	8bb\J	8bb\J	.	.	8gg\	8bb\	.	.	8bb\J	8bb\J	.
!	!	!LO:MO:mod=8aaL	!	!	!	!	!	!	!	!	!
8D\L	8aa\L	8.aa\L	.	.	4ff#\	4aa\	.	.	8aa\L	8aa\L	.
!	!	!LO:MO:null:mod=16ff#L	!	!	!	!	!	!	!	!	!
8E\	16ff#\L	.	.	.	.	.	.	.	16ff#\L	16ff#\L	.
!	!	!LO:MO:mod=16ggJJ	!	!	!	!	!	!	!	!	!
.	16gg\JJ	32ff#\LL	.	.	.	.	.	.	16gg\JJ	16gg\JJ	.
!	!	!LO:MO:mod=.	!	!	!	!	!	!	!	!	!
.	.	32gg\JJJ	.	.	.	.	.	.	.	.	.
8F#\	8aa\L	8aa\L	.	.	8r	8r	.	.	8aa\L	8aa\L	.
8G\J	8bb\J	8bb\J	.	.	8gg\	8bb\	.	.	8bb\J	8bb\J	.
=2	=2	=2	=2	=2	=2	=2	=2	=2	=2	=2	=2
!	!	!LO:MO:mod=8aaL	!	!	!	!	!	!	!	!	!
8D\L	8aa\L	8.aa\L	1ryy	1ryy	4ff#\	4aa\	1ryy	1ryy	8aa\L	8aa\L	.
!	!	!LO:MO:null:mod=16ff#L	!	!	!	!	!	!	!	!	!
8E\	16ff#\L	.	.	.	.	.	.	.	16ff#\L	16ff#\L	.
!	!	!LO:MO:mod=16ggJJ	!	!	!	!	!	!	!	!	!
.	16gg\JJ	32ff#\LL	.	.	.	.	.	.	16gg\JJ	16gg\JJ	.
!	!	!LO:MO:mod=.	!	!	!	!	!	!	!	!	!
.	.	32gg\JJJ	.	.	.	.	.	.	.	.	.
8F#\	8aa\L	8aa\L	.	.	8r	8r	.	.	8aa\L	8aa\L	.
8G\J	8bb\J	8bb\J	.	.	8gg\	8bb\	.	.	8bb\J	8bb\J	.
8A\L	8cc#\L	8cc#\L	.	.	8a/L	8ee\L	.	.	8cc#\L	8cc#\L	.
8D\J	8dd\J	8dd\J	.	.	16dd/L	16ff#\L	.	.	8dd\J	8dd\J	.
.	.	.	.	.	16dd/JJ	16ff#\JJ	.	.	.	.	.
8r	8r	8r	.	.	8dd\L	8ff#\L	.	.	8r	8r	.
8D/	8dd\	8dd\	.	.	8dd\J	8ff#\J	.	.	8dd\	8dd\	.
=3	=3	=3	=3	=3	=3	=3	=3	=3	=3	=3	=3
*	*	*	*	*	*	*2\right	*	*	*	*	*
8AA/L	16gg\LL	16gg\LL	1ryy	1ryy	2a/	2ee\	1ryy	1ryy	16ee\LL	16gg\LL	.
.	16ff#\JJ	16ff#\JJ	.	.	.	.	.	.	16dd\JJ	16ff#\JJ	.
8AA/	4.ee\	4.ee\	.	.	.	.	.	.	4.cc#\	4.ee\	.
8AA/	.	.	.	.	.	.	.	.	.	.	.
8AA/J	.	.	.	.	.	.	.	.	.	.	.
8AA/L	16ee\LL	16ee\LL	.	.	2a/	2ee\	.	.	16cc#\LL	16ee\LL	.
.	16dd\JJ	16dd\JJ	.	.	.	.	.	.	16b\JJ	16dd\JJ	.
8AA/	4.cc#\	4.cc#\	.	.	.	.	.	.	4.a\	4.cc#\	.
8AA/	.	.	.	.	.	.	.	.	.	.	.
8AA/J	.	.	.	.	.	.	.	.	.	.	.
=4	=4	=4	=4	=4	=4	=4	=4	=4	=4	=4	=4
8AA/L	16cc#\LL	16cc#\LL	1ryy	1ryy	2a/	2ee\	1ryy	1ryy	16a/LL	16cc#\LL	.
.	16b\JJ	16b\JJ	.	.	.	.	.	.	16g/JJ	16b\JJ	.
8AA/	4a/	4a/	.	.	.	.	.	.	4f#/	4a/	.
8AA/	.	.	.	.	.	.	.	.	.	.	.
8AA/J	8g/	8g/	.	.	.	.	.	.	8e/	8g/	.
8D\L	16f#/LL	16f#/LL	.	.	8dd\L	8ff#\L	.	.	16d/LL	16f#/LL	.
.	16e/J	16e/J	.	.	.	.	.	.	16e/J	16e/J	.
8E\	8d/J	8d/J	.	.	16dd\L	16ff#\L	.	.	8d/J	8d/J	.
.	.	.	.	.	16dd\JJ	16ff#\JJ	.	.	.	.	.
8F#\	4r	4r	.	.	8dd\L	8ff#\L	.	.	4r	4r	.
8E\J	.	.	.	.	8dd\J	8ff#\J	.	.	.	.	.
=5	=5	=5	=5	=5	=5	=5	=5	=5	=5	=5	=5
8D\L	4dd\	4dd\	1ryy	1ryy	4dd\	4ff#\	1ryy	1ryy	0r	0r	.
8D\	.	.	.	.	.	.	.	.	.	.	.
8D\	16dd\LL	16dd\LL	.	.	4r	4r	.	.	.	.	.
.	16ee\	16ee\	.	.	.	.	.	.	.	.	.
8D\J	16ffn\	16ffn\	.	.	.	.	.	.	.	.	.
.	16gg\JJ	16gg\JJ	.	.	.	.	.	.	.	.	.
8D\L	8aa\	8aa\	.	.	2r	2r	.	.	.	.	.
8G\	4.bb-X\	4.bb-X\	.	.	.	.	.	.	.	.	.
8Fn\	.	.	.	.	.	.	.	.	.	.	.
8E\J	.	.	.	.	.	.	.	.	.	.	.
=6	=6	=6	=6	=6	=6	=6	=6	=6	=6	=6	=6
8D\L	4dd\	4dd\	1ryy	1ryy	1r	1r	1ryy	1ryy	.	.	.
8D\	.	.	.	.	.	.	.	.	.	.	.
8D\	16dd\LL	16dd\LL	.	.	.	.	.	.	.	.	.
.	16ee\	16ee\	.	.	.	.	.	.	.	.	.
8D\J	16ffn\	16ffn\	.	.	.	.	.	.	.	.	.
.	16gg\JJ	16gg\JJ	.	.	.	.	.	.	.	.	.
8D\L	8aa\	8aa\	.	.	.	.	.	.	.	.	.
!	!	!LO:N:vis=4	!	!	!	!	!	!	!	!	!
8G\	4.bb-X\	4.bb-X\	.	.	.	.	.	.	.	.	.
8Fn\	.	.	.	.	.	.	.	.	.	.	.
8E\J	.	.	.	.	.	.	.	.	.	.	.
=7	=7	=7	=7	=7	=7	=7	=7	=7	=7	=7	=7
!	!	!LO:SIC:v:s=4ffn\	!	!	!	!	!	!	!	!	!
8D\L	4ffn\	4ff#\	1ryy	1ryy	2r	2r	1ryy	1ryy	2r	2r	.
8Fn\	.	.	.	.	.	.	.	.	.	.	.
8G\	8ee\L	8ee\L	.	.	.	.	.	.	.	.	.
8B-X\J	8dd\J	8dd\J	.	.	.	.	.	.	.	.	.
!	!	!LO:LB:g=original	!	!	!	!	!	!	!	!	!
8A\L	4cc#\	4cc#\	.	.	8r	8r	.	.	4r	4r	.
8E\J	.	.	.	.	16a/LL	16ee\LL	.	.	.	.	.
.	.	.	.	.	16a/JJ	16ee\JJ	.	.	.	.	.
8C#/L	8r	8r	.	.	8a/L	8ee\L	.	.	8r	8r	.
8AA/J	8ee\	8ee\	.	.	8a/J	8ee\J	.	.	8ee\	8ee\	.
!	!	!	!	!	!	!	!	!	!LO:LB:g=original	!	!
=8	=8	=8	=8	=8	=8	=8	=8	=8	=8	=8	=8
!	!LO:SIC:s=16ff#XLL	!LO:SIC:s=16ff#XLL	!	!	!	!	!	!	!LO:SIC:s=16ff#XLL	!	!
4D\	16ff#\LL	16ff#\LL	1ryy	1ryy	4dd\	4ff#\	1ryy	1ryy	16ff#\LL	16ff#X\LL	.
.	16ee\	16ee\	.	.	.	.	.	.	16ee\	16ee\	.
.	16dd\	16dd\	.	.	.	.	.	.	16dd\	16dd\	.
.	16cc#\JJ	16ee\JJ	.	.	.	.	.	.	16cc#\JJ	16ee\JJ	.
4D\	16dd\LL	16ff#\LL	.	.	4r	4r	.	.	16dd\LL	16ff#\LL	.
.	16ee\	16gg\	.	.	.	.	.	.	16ee\	16gg\	.
.	16ff#\	16aa\	.	.	.	.	.	.	16ff#\	16aa\	.
.	16gg\JJ	16bb\JJ	.	.	.	.	.	.	16gg\JJ	16bb\JJ	.
.	.	8qqaa/	.	.	.	.	.	.	.	.	.
4G\	8ee\	8gg\	.	.	4a/	4ee\	.	.	8ee\	8gg\	.
.	4dd\	4ff#\	.	.	.	.	.	.	4dd\	4ff#\	.
4A\	.	.	.	.	4a/	4ee\	.	.	.	.	.
.	8cc#\	8ee\	.	.	.	.	.	.	8cc#\	8ee\	.
!	!LO:LB:g=original	!	!	!	!	!	!	!	!	!LO:LB:g=original	!
=9	=9	=9	=9	=9	=9	=9	=9	=9	=9	=9	=9
4D\	16ff#\LL	16ff#\LL	1ryy	1ryy	4dd\	4ff#\	1ryy	1ryy	16ff#\LL	16ff#\LL	.
.	16ee\	16ee\	.	.	.	.	.	.	16ee\	16ee\	.
.	16dd\	16dd\	.	.	.	.	.	.	16dd\	16dd\	.
.	16cc#\JJ	16ee\JJ	.	.	.	.	.	.	16cc#\JJ	16ee\JJ	.
4D\	16dd\LL	16ff#\LL	.	.	4r	4r	.	.	16dd\LL	16ff#\LL	.
.	16ee\	16gg\	.	.	.	.	.	.	16ee\	16gg\	.
.	16ff#\	16aa\	.	.	.	.	.	.	16ff#\	16aa\	.
.	16gg\JJ	16bb\JJ	.	.	.	.	.	.	16gg\JJ	16bb\JJ	.
.	.	8qqaa/	.	.	.	.	.	.	.	.	.
4G\	8ee\	8gg\	.	.	4a/	4ee\	.	.	8ee\	8gg\	.
.	4dd\	4ff#\	.	.	.	.	.	.	4dd\	4ff#\	.
4A\	.	.	.	.	4a/	4ee\	.	.	.	.	.
.	8cc#\	8ee\	.	.	.	.	.	.	8cc#\	8ee\	.
!LO:LB:g=original	!	!	!	!	!	!	!	!	!	!	!
=10	=10	=10	=10	=10	=10	=10	=10	=10	=10	=10	=10
4D\	16dd\LL	8ff#\L	1ryy	1ryy	4dd\	4ff#\	1ryy	1ryy	16dd\LL	16dd\LL	.
.	16ff#\	.	.	.	.	.	.	.	16ff#\	16ff#\	.
.	16gg\	16gg\L	.	.	.	.	.	.	16gg\	16gg\	.
.	16aa\JJ	16aa\JJ	.	.	.	.	.	.	16aa\JJ	16aa\JJ	.
4G\	16gg\LL	16gg\LL	.	.	4r	4r	.	.	16gg\LL	16gg\LL	.
.	16ff#\	16ff#\	.	.	.	.	.	.	16ff#\	16ff#\	.
.	16ee\	16ee\	.	.	.	.	.	.	16ee\	16ee\	.
.	16dd\JJ	16dd\JJ	.	.	.	.	.	.	16dd\JJ	16dd\JJ	.
4A\	8cc#\L	8cc#\L	.	.	4a/	4ee\	.	.	8cc#\L	8cc#\L	.
.	16dd\L	16dd\L	.	.	.	.	.	.	16dd\L	16dd\L	.
.	16ee\JJ	16ee\JJ	.	.	.	.	.	.	16ee\JJ	16ee\JJ	.
4AA/	16dd\LL	16dd\LL	.	.	4r	4r	.	.	16dd\LL	16dd\LL	.
.	16cc#\	16cc#\	.	.	.	.	.	.	16cc#\	16cc#\	.
.	16b\	16b\	.	.	.	.	.	.	16b\	16b\	.
.	16a\JJ	16a\JJ	.	.	.	.	.	.	16a\JJ	16a\JJ	.
!	!	!	!	!	!	!LO:LB:g=original	!	!	!	!	!
=11	=11	=11	=11	=11	=11	=11	=11	=11	=11	=11	=11
!	!	!	!	!	!	!	!	!	!	!LO:TX:a:mod= :t=3	!
4D\	8f#/L	8f#/L	1ryy	1ryy	4dd\	4ff#\	1ryy	1ryy	0r	0r	.
.	16g/L	16g/L	.	.	.	.	.	.	.	.	.
.	16a/JJ	16a/JJ	.	.	.	.	.	.	.	.	.
4G\	16g/LL	16g/LL	.	.	4r	4r	.	.	.	.	.
.	16f#/	16f#/	.	.	.	.	.	.	.	.	.
.	16e/	16e/	.	.	.	.	.	.	.	.	.
.	16d/JJ	16d/JJ	.	.	.	.	.	.	.	.	.
4A\	8c#/L	8c#/L	.	.	4a/	4ee\	.	.	.	.	.
.	16d/L	16d/L	.	.	.	.	.	.	.	.	.
.	16e/JJ	16e/JJ	.	.	.	.	.	.	.	.	.
4AA/	16d/LL	16d/LL	.	.	4r	4r	.	.	.	.	.
.	16c#/	16c#/	.	.	.	.	.	.	.	.	.
.	16B/	16B/	.	.	.	.	.	.	.	.	.
.	16A/JJ	16A/JJ	.	.	.	.	.	.	.	.	.
!	!	!	!	!	!LO:LB:g=origina	!	!	!	!	!	!
=12	=12	=12	=12	=12	=12	=12	=12	=12	=12	=12	=12
*	*	*	*	*	*Xtuplet	*	*	*	*	*	*
!	!	!	!	!	!LO:TX:a:i:mod= :t=Solo	!LO:TX:a:i:mod= :t=Solo	!	!	!	!	!
!	!	!	!	!	!LO:MO:mod=16ddLL	!	!	!	!	!	!
4D\	8d/L	8d/L	1ryy	1ryy	12dd\LL	16ff#\LL	1ryy	1ryy	.	.	.
!	!	!	!	!	!LO:MO:null:mod=16eeJ	!	!	!	!	!	!
.	.	.	.	.	.	16gg\J	.	.	.	.	.
!	!	!	!	!	!LO:MO:mod=.	!	!	!	!	!	!
.	.	.	.	.	12ee\J	.	.	.	.	.	.
!	!	!	!	!	!LO:MO:null:mod=8ff#J	!	!	!	!	!	!
.	8d/	8d/	.	.	.	8aa\J	.	.	.	.	.
!	!	!	!	!	!LO:MO:mod=.	!	!	!	!	!	!
.	.	.	.	.	12ff#\J	.	.	.	.	.	.
!	!	!	!	!	!LO:MO:mod=16ddLL	!	!	!	!	!	!
4r	8d/	8d/	.	.	12dd\LL	16ff#\LL	.	.	.	.	.
!	!	!	!	!	!LO:MO:null:mod=16eeJ	!	!	!	!	!	!
.	.	.	.	.	.	16gg\J	.	.	.	.	.
!	!	!	!	!	!LO:MO:mod=.	!	!	!	!	!	!
.	.	.	.	.	12ee\J	.	.	.	.	.	.
!	!	!	!	!	!LO:MO:null:mod=8ff#J	!	!	!	!	!	!
.	8d/J	8d/J	.	.	.	8aa\J	.	.	.	.	.
!	!	!	!	!	!LO:MO:mod=.	!	!	!	!	!	!
.	.	.	.	.	12ff#\J	.	.	.	.	.	.
2r	4d/	4d/	.	.	8gg\L	8bb\L	.	.	.	.	.
.	.	.	.	.	8ff#\	8aa\	.	.	.	.	.
.	4r	4r	.	.	8ee\	8gg\	.	.	.	.	.
.	.	.	.	.	8dd\J	8ff#\J	.	.	.	.	.
=13	=13	=13	=13	=13	=13	=13	=13	=13	=13	=13	=13
!	!	!	!	!	!LO:MO:mod=16aLL	!	!	!	!	!	!
0r	8A/L	8A/L	1ryy	1ryy	12a\LL	16ee\LL	1ryy	1ryy	1r	1r	.
!	!	!	!	!	!LO:MO:null:mod=16ddJ	!	!	!	!	!	!
.	.	.	.	.	.	16ff#\J	.	.	.	.	.
!	!	!	!	!	!LO:MO:mod=.	!	!	!	!	!	!
.	.	.	.	.	12dd\J	.	.	.	.	.	.
!	!	!	!	!	!LO:MO:null:mod=8eeJ	!	!	!	!	!	!
.	8A/	8A/	.	.	.	8gg\J	.	.	.	.	.
!	!	!	!	!	!LO:MO:mod=.	!	!	!	!	!	!
.	.	.	.	.	12ee\J	.	.	.	.	.	.
!	!	!	!	!	!LO:MO:mod=16aLL	!	!	!	!	!	!
.	8A/	8A/	.	.	12a\LL	16ee\LL	.	.	.	.	.
!	!	!	!	!	!LO:MO:null:mod=16ddJ	!	!	!	!	!	!
.	.	.	.	.	.	16ff#\J	.	.	.	.	.
!	!	!	!	!	!LO:MO:mod=.	!	!	!	!	!	!
.	.	.	.	.	12dd\J	.	.	.	.	.	.
!	!	!	!	!	!LO:MO:null:mod=8eeJ	!	!	!	!	!	!
.	8A/J	8A/J	.	.	.	8gg\J	.	.	.	.	.
!	!	!	!	!	!LO:MO:mod=.	!	!	!	!	!	!
.	.	.	.	.	12ee\J	.	.	.	.	.	.
.	4A/	4A/	.	.	8ff#\L	8aa\L	.	.	.	.	.
.	.	.	.	.	8ee\	8gg\	.	.	.	.	.
.	4r	4r	.	.	8dd\	8ff#\	.	.	.	.	.
.	.	.	.	.	8a\J	8ee\J	.	.	.	.	.
!	!	!LO:LB:g=original	!	!	!	!	!	!	!	!	!
=14	=14	=14	=14	=14	=14	=14	=14	=14	=14	=14	=14
!	!	!	!	!	!	!	!	!	!	!LO:SIC:s=(32ff#LLL	!
!	!	!	!	!	!	!	!	!	!LO:SIC:s=(32ddLLL	!LO:TX:a:i:mod= :t=Solo	!
.	8d/L	8d/L	1ryy	1ryy	4dd\	4ff#\	1ryy	1ryy	32dd\LLL	32ff#\LLL	.
.	.	.	.	.	.	.	.	.	32ee\JJ	32gg\JJ	.
!	!	!	!	!	!	!	!	!	!LO:SIC:s=8.ff#\J)	!LO:SIC:s=8.aa\J)	!
.	.	.	.	.	.	.	.	.	8.ff#\J	8.aa\J	.
.	8d/	8d/	.	.	.	.	.	.	.	.	.
!	!	!	!	!	!	!	!	!	!LO:SIC:s=(32ddLLL	!LO:SIC:s=(32ff#LLL	!
.	8d/	8d/	.	.	4r	4r	.	.	32dd\LLL	32ff#\LLL	.
.	.	.	.	.	.	.	.	.	32ee\JJ	32gg\JJ	.
!	!	!	!	!	!	!	!	!	!LO:SIC:s=8.ff#\J)	!LO:SIC:s=8.aa\J)	!
.	.	.	.	.	.	.	.	.	8.ff#\J	8.aa\J	.
.	8d/J	8d/J	.	.	.	.	.	.	.	.	.
.	4d/	4d/	.	.	2r	2r	.	.	8gg\L	8bb\L	.
.	.	.	.	.	.	.	.	.	8ff#\	8aa\	.
.	4r	4r	.	.	.	.	.	.	8ee\	8gg\	.
.	.	.	.	.	.	.	.	.	8dd\J	8ff#\J	.
=15	=15	=15	=15	=15	=15	=15	=15	=15	=15	=15	=15
!	!	!	!	!	!	!	!	!	!LO:SIC:s=(32cc#LLL	!LO:SIC:s=(32eeLLL	!
1r	8A/L	8A/L	1ryy	1ryy	0r	0r	1ryy	1ryy	32cc#\LLL	32ee\LLL	.
.	.	.	.	.	.	.	.	.	32dd\JJ	32ff#\JJ	.
!	!	!	!	!	!	!	!	!	!LO:SIC:s=8.eeJ)	!LO:SIC:s=8.ggJ)	!
.	.	.	.	.	.	.	.	.	8.ee\J	8.gg\J	.
.	8A/	8A/	.	.	.	.	.	.	.	.	.
!	!	!	!	!	!	!	!	!	!LO:SIC:s=(32cc#LLL	!LO:SIC:s=(32eeLLL	!
.	8A/	8A/	.	.	.	.	.	.	32cc#\LLL	32ee\LLL	.
.	.	.	.	.	.	.	.	.	32dd\JJ	32ff#\JJ	.
!	!	!	!	!	!	!	!	!	!LO:SIC:s=8.eeJ)	!LO:SIC:s=8.ggJ)	!
.	.	.	.	.	.	.	.	.	8.ee\J	8.gg\J	.
.	8A/J	8A/J	.	.	.	.	.	.	.	.	.
.	4A/	4A/	.	.	.	.	.	.	8ff#\L	8aa\L	.
.	.	.	.	.	.	.	.	.	8ee\	8gg\	.
.	4r	4r	.	.	.	.	.	.	8dd\	8ff#\	.
.	.	.	.	.	.	.	.	.	8cc#\J	8ee\J	.
!	!	!	!	!	!	!	!	!	!LO:LB:g=original	!	!
=16	=16	=16	=16	=16	=16	=16	=16	=16	=16	=16	=16
!	!LO:TX:t=P:problem=mixed beam	!LO:TX:t=P:problem=mixed beam	!	!	!	!	!	!	!LO:TX:t=P:problem=kolejność znaków cc# ff#	!	!LO:DY:a:mod= :t=for
8r	8d/L	8d/L	1ryy	1ryy	.	.	1ryy	1ryy	8dd\L	8dd\L	f
8D\L	8dd\J	8dd\J	.	.	.	.	.	.	8dd\J	8dd\J	.
!	!	!	!	!	!	!	!	!	!LO:SIC:s=(16ddLL	!LO:SIC:s=(16ddLL	!
8B\	(>16dd\LL	(>16dd\LL	.	.	.	.	.	.	16dd\LL	16dd\LL	.
!	!	!	!	!	!	!	!	!	!LO:SIC:s=16cc#)	!LO:SIC:s=16cc#)	!
.	16cc#\)	16cc#\)	.	.	.	.	.	.	16cc#\	16cc#\	.
!	!	!	!	!	!	!	!	!	!LO:SIC:s=(16dd	!LO:SIC:s=(16dd	!
8A\J	(>16dd\	(>16dd\	.	.	.	.	.	.	16dd\	16dd\	.
!	!	!	!	!	!	!	!	!	!LO:SIC:s=16cc#JJ)	!LO:SIC:s=16cc#JJ)	!
.	16cc#\JJ)	16cc#\JJ)	.	.	.	.	.	.	16cc#\JJ	16cc#\JJ	.
8G#X\L	8dd\	8dd\	.	.	.	.	.	.	8dd\	8dd\	.
8E\	4gg#X\	4gg#X\	.	.	.	.	.	.	4gg#X\	4gg#X\	.
8E\	.	.	.	.	.	.	.	.	.	.	.
8E\J	8bb\	8bb\	.	.	.	.	.	.	8bb\	8bb\	.
!	!LO:LB:g=original	!	!	!	!	!	!	!	!	!LO:LB:g=original	!
=17	=17	=17	=17	=17	=17	=17	=17	=17	=17	=17	=17
8E\L	8bb\	8bb\	1ryy	1ryy	1r	1r	1ryy	1ryy	8bb\	8bb\	.
!	!	!LO:SIC:v:s=4gg#\	!	!	!	!	!	!	!	!	!
8E\	4gg#X\	4gg\	.	.	.	.	.	.	4gg#X\	4gg#X\	.
8E\	.	.	.	.	.	.	.	.	.	.	.
8E\J	4dd\	4dd\	.	.	.	.	.	.	4dd\	4dd\	.
8E\L	.	.	.	.	.	.	.	.	.	.	.
8E\	4cc#\	4cc#\	.	.	.	.	.	.	4cc#\	4cc#\	.
8E\	.	.	.	.	.	.	.	.	.	.	.
8E\J	8b\	8b\	.	.	.	.	.	.	8b\	8b\	.
=18	=18	=18	=18	=18	=18	=18	=18	=18	=18	=18	=18
*	*Xtuplet	*Xtuplet	*	*	*	*	*	*	*	*	*
!LO:TX:t=P:problem=brak t. 19	!	!	!	!	!	!	!	!	!	!	!
!LO:MO:mod=8E@L	!	!LO:SIC:s=12cc#L	!	!	!	!	!	!	!	!LO:TUP:a	!
1ryy	12cc#\L	(>12cc#\L	1ryy	1ryy	4a/	4ee\	1ryy	1ryy	12cc#\L	12cc#\L	.
.	12b\	12b\	.	.	.	.	.	.	12b\	12b\	.
!LO:MO:null:mod=8E@	!	!	!	!	!	!	!	!	!	!	!
.	.	.	.	.	.	.	.	.	.	.	.
!	!	!LO:SIC:s=12aJ	!	!	!	!	!	!	!	!	!
.	12a\J	12a\J)	.	.	.	.	.	.	12a\J	12a\J	.
!LO:MO:null:mod=8E@	!	!	!	!	!	!	!	!	!	!	!
.	4b\	4b\	.	.	4a/	4ee\	.	.	4b\	4b\	.
!LO:MO:null:mod=8E@J	!	!	!	!	!	!	!	!	!	!	!
.	.	.	.	.	.	.	.	.	.	.	.
!LO:MO:null:mod=8E@L	!	!	!	!	!	!	!	!	!LO:TUP:a	!	!
.	12cc#\L	12cc#\L	.	.	4a/	4ee\	.	.	12cc#\L	12cc#\L	.
.	12b\	12b\	.	.	.	.	.	.	12b\	12b\	.
!LO:MO:null:mod=8E@	!	!	!	!	!	!	!	!	!	!	!
.	.	.	.	.	.	.	.	.	.	.	.
.	12a\J	12a\J	.	.	.	.	.	.	12a\J	12a\J	.
!LO:MO:null:mod=8E@	!	!	!	!	!	!	!	!	!	!	!
.	4b\	4b\	.	.	4a/	4ee\	.	.	4b\	4b\	.
!LO:MO:null:mod=8E@J	!	!	!	!	!	!	!	!	!	!	!
.	.	.	.	.	.	.	.	.	.	.	.
=19	=19	=19	=19	=19	=19	=19	=19	=19	=19	=19	=19
!LO:TX:t=P:problem=mixed beam	!	!	!	!	!	!	!	!	!LO:TUP:a	!	!
8AA/L	12cc#\L	12cc#\L	1ryy	1ryy	4a/	4ee\	1ryy	1ryy	12cc#\L	12cc#\L	.
.	12b\	12b\	.	.	.	.	.	.	12b\	12b\	.
8AA/	.	.	.	.	.	.	.	.	.	.	.
.	12a\J	12a\J	.	.	.	.	.	.	12a\J	12a\J	.
8E\	4b\	4b\	.	.	4ee\	4ee\	.	.	4b\	4b\	.
8E\J	.	.	.	.	.	.	.	.	.	.	.
4AA/	4a/	4a\	.	.	8a/L	8ee\L	.	.	4a/	4a\	.
.	.	.	.	.	16a/L	16ee\L	.	.	.	.	.
.	.	.	.	.	16a/JJ	16ee\JJ	.	.	.	.	.
4r	8r	8r	.	.	4a/	4ee\	.	.	8r	8r	.
.	8ee\	8ee\	.	.	.	.	.	.	8ee\	8ee\	.
=20	=20	=20	=20	=20	=20	=20	=20	=20	=20	=20	=20
!	!	!LO:MO:mod=8eeL	!	!	!	!	!	!	!	!	!
8AA/L	8ee\L	8.ee\L	1ryy	1ryy	4a/	4ee\	1ryy	1ryy	8ee\L	8ee\L	.
!	!	!LO:MO:null:mod=16cc#L	!	!	!	!	!	!	!	!	!
8BB/	16cc#\L	.	.	.	.	.	.	.	16cc#\L	16cc#\L	.
!	!	!LO:MO:mod=16ddJJ	!	!	!	!	!	!	!	!	!
.	16dd\JJ	32cc#\LL	.	.	.	.	.	.	16dd\JJ	16dd\JJ	.
!	!	!LO:MO:mod=.	!	!	!	!	!	!	!	!	!
.	.	32dd\JJJ	.	.	.	.	.	.	.	.	.
8C#/	8ee\L	8ee\L	.	.	4r	4r	.	.	8ee\L	8ee\L	.
8D/J	8ff#\J	8ff#\J	.	.	.	.	.	.	8ff#\J	8ff#\J	.
!	!	!LO:MO:mod=8eeL	!	!	!	!	!	!	!	!	!
8AA/L	8ee\L	8.ee\L	.	.	4a/	4ee\	.	.	8ee\L	8ee\L	.
!	!	!LO:MO:null:mod=16cc#L	!	!	!	!	!	!	!	!	!
8BB/	16cc#\L	.	.	.	.	.	.	.	16cc#\L	16cc#\L	.
!	!	!LO:MO:mod=16ddJJ	!	!	!	!	!	!	!	!	!
.	16dd\JJ	32cc#\LL	.	.	.	.	.	.	16dd\JJ	16dd\JJ	.
!	!	!LO:MO:mod=.	!	!	!	!	!	!	!	!	!
.	.	32dd\JJJ	.	.	.	.	.	.	.	.	.
8C#/	8ee\L	8ee\L	.	.	4r	4r	.	.	8ee\L	8ee\L	.
8D/J	8ff#\J	8ff#\J	.	.	.	.	.	.	8ff#\J	8ff#\J	.
=21	=21	=21	=21	=21	=21	=21	=21	=21	=21	=21	=21
!	!	!LO:MO:mod=8eeL	!	!	!	!	!	!	!	!	!
8AA/L	8ee\L	8.ee\L	1ryy	1ryy	4a/	4ee\	1ryy	1ryy	8ee\L	8ee\L	.
!	!	!LO:MO:null:mod=16cc#L	!	!	!	!	!	!	!	!	!
8BB/	16cc#\L	.	.	.	.	.	.	.	16cc#\L	16cc#\L	.
!	!	!LO:MO:mod=16ddJJ	!	!	!	!	!	!	!	!	!
.	16dd\JJ	32cc#\LL	.	.	.	.	.	.	16dd\JJ	16dd\JJ	.
!	!	!LO:MO:mod=.	!	!	!	!	!	!	!	!	!
.	.	32dd\JJJ	.	.	.	.	.	.	.	.	.
8C#/	8ee\L	8ee\L	.	.	4r	4r	.	.	8ee\L	8ee\L	.
8D/J	8ff#\J	8ff#\J	.	.	.	.	.	.	8ff#\J	8ff#\J	.
!LO:TX:t=P:problem=mixed beam	!	!	!	!	!	!	!	!	!	!	!
8E\L	8g#X/L	8g#X/L	.	.	8ee\L	8ee\L	.	.	8g#X/L	8g#X/L	.
8AA/J	8a/J	8a/J	.	.	16a\L	16ee\L	.	.	8a/J	8a/J	.
.	.	.	.	.	16a\JJ	16ee\JJ	.	.	.	.	.
8r	8r	8r	.	.	8a\L	8ee\L	.	.	8r	8r	.
8AA/	8a/	8a/	.	.	8a\J	8ee\J	.	.	8a/	8a/	.
=22	=22	=22	=22	=22	=22	=22	=22	=22	=22	=22	=22
*	*	*	*	*	*2\right	*	*	*	*	*	*
8E\L	16dd\LL	16dd\LL	1ryy	1ryy	2ee\	2ee\	1ryy	1ryy	16b/LL	16dd\LL	.
.	16cc#\JJ	16cc#\JJ	.	.	.	.	.	.	16a/JJ	16cc#\JJ	.
8E\	4.b\	4.b\	.	.	.	.	.	.	4.g#X/	4.b\	.
8E\	.	.	.	.	.	.	.	.	.	.	.
8E\J	.	.	.	.	.	.	.	.	.	.	.
!	!	!LO:LB:g=original	!	!	!	!	!	!	!	!	!
8E\L	16b/LL	16b/LL	.	.	2ee\	2ee\	.	.	16g#/LL	16b/LL	.
.	16a/JJ	16a/JJ	.	.	.	.	.	.	16f#/JJ	16a/JJ	.
8E\	4.g#X/	4.g#X/	.	.	.	.	.	.	4.e/	4.g#X/	.
8E\	.	.	.	.	.	.	.	.	.	.	.
8E\J	.	.	.	.	.	.	.	.	.	.	.
!	!	!	!	!	!	!LO:LB:g=original	!	!	!LO:LB:g=original	!	!
=23	=23	=23	=23	=23	=23	=23	=23	=23	=23	=23	=23
!	!LO:SIC:v:s=16g#/LL	!LO:SIC:v:s=16g#/LL	!	!	!	!	!	!	!	!	!
8E\L	16g/LL	16g/LL	1ryy	1ryy	2ee\	2ee\	1ryy	1ryy	8b\L	8dd\L	.
.	16f#/JJ	16f#/JJ	.	.	.	.	.	.	.	.	.
8E\	4e/	4e/	.	.	.	.	.	.	8b\	8dd\	.
8E\	.	.	.	.	.	.	.	.	8b\	8dd\	.
8E\J	8d/	8d/	.	.	.	.	.	.	8b\J	8dd\J	.
!LO:LB:g=original	!	!	!	!	!	!	!	!	!	!	!
8AA/L	16c#/LL	16c#/LL	.	.	8a/L	8ee\L	.	.	4a/	4cc#\	.
.	16B/J	16B/J	.	.	.	.	.	.	.	.	.
8BB/	8A/J	8A/J	.	.	16a/L	16ee\L	.	.	.	.	.
.	.	.	.	.	16a/JJ	16ee\JJ	.	.	.	.	.
8C#/	4r	4r	.	.	8a/L	8ee\L	.	.	4r	4r	.
8AA/J	.	.	.	.	8a/J	8ee\J	.	.	.	.	.
=24	=24	=24	=24	=24	=24	=24	=24	=24	=24	=24	=24
8AA/L	4a\	4a/	1ryy	1ryy	4a/	4ee\	1ryy	1ryy	0r	0r	.
8AA/	.	.	.	.	.	.	.	.	.	.	.
8AA/	16a\LL	16a/LL	.	.	4r	4r	.	.	.	.	.
.	16b\	16b/	.	.	.	.	.	.	.	.	.
8AA/J	16ccn\	16ccn/	.	.	.	.	.	.	.	.	.
.	16dd\JJ	16dd/JJ	.	.	.	.	.	.	.	.	.
8AA/L	8ee\	8ee\	.	.	2r	2r	.	.	.	.	.
8D/	4.ffn\	4.ffn\	.	.	.	.	.	.	.	.	.
8Cn/	.	.	.	.	.	.	.	.	.	.	.
8BB/J	.	.	.	.	.	.	.	.	.	.	.
!	!	!	!	!	!LO:LB:g=origina	!	!	!	!	!	!
=25	=25	=25	=25	=25	=25	=25	=25	=25	=25	=25	=25
!	!	!	!	!	!LO:TX:t=P:problem=skreślony takt	!LO:TX:a:mod= :t=2	!	!	!	!	!
8AA/L	4a\	4a/	1ryy	1ryy	0r	0r	1ryy	1ryy	.	.	.
8AA/	.	.	.	.	.	.	.	.	.	.	.
8AA/	16a\LL	16a/LL	.	.	.	.	.	.	.	.	.
.	16b\	16b/	.	.	.	.	.	.	.	.	.
8AA/J	16ccn\	16ccn/	.	.	.	.	.	.	.	.	.
.	16dd\JJ	16dd/JJ	.	.	.	.	.	.	.	.	.
8AA/L	8ee\	8ee\	.	.	.	.	.	.	.	.	.
8D/	4.ffn\	4.ffn\	.	.	.	.	.	.	.	.	.
8Cn/	.	.	.	.	.	.	.	.	.	.	.
8BB/J	.	.	.	.	.	.	.	.	.	.	.
!	!LO:LB:g=original	!	!	!	!	!	!	!	!	!	!
=26	=26	=26	=26	=26	=26	=26	=26	=26	=26	=26	=26
8AA/L	4ccn\	4ccn\	1ryy	1ryy	.	.	1ryy	1ryy	2r	2r	.
!LO:SIC:v:s=8Cn/	!	!	!	!	!	!	!	!	!	!	!
8C#/	.	.	.	.	.	.	.	.	.	.	.
8D/	8b\L	8b\L	.	.	.	.	.	.	.	.	.
8Fn/J	8a\J	8a\J	.	.	.	.	.	.	.	.	.
8E\L	4g#X/	4g#X/	.	.	.	.	.	.	4r	4r	.
8BB\J	.	.	.	.	.	.	.	.	.	.	.
8GG#X/L	8r	8r	.	.	.	.	.	.	8r	8r	.
!	!LO:TX:a:mod= :t=h	!	!	!	!	!	!	!	!	!	!
!	!LO:TX:b:mod= :t=h	!	!	!	!	!	!	!	!	!	!
8EE/J	8b\	8b\	.	.	.	.	.	.	8b\	8b/	.
!	!	!	!	!	!	!	!	!	!	!LO:LB:g=original	!
=27	=27	=27	=27	=27	=27	=27	=27	=27	=27	=27	=27
!	!LO:SIC:s=16cc#XLL	!	!	!	!	!	!	!	!	!	!
4AA/	16cc#\LL	16cc#X\LL	1ryy	1ryy	4a/	4ee\	1ryy	1ryy	16cc#\LL	16cc#\LL	.
.	16b\	16b\	.	.	.	.	.	.	16b\	16b\	.
.	16a\	16a\	.	.	.	.	.	.	16a\	16a\	.
.	16g#X\JJ	16b\JJ	.	.	.	.	.	.	16g#X\JJ	16b\JJ	.
4A\	16a\LL	16cc#\LL	.	.	4r	4r	.	.	16a\LL	16cc#\LL	.
.	16b\	16dd\	.	.	.	.	.	.	16b\	16dd\	.
.	16cc#\	16ee\	.	.	.	.	.	.	16cc#\	16ee\	.
.	16dd\JJ	16ff#\JJ	.	.	.	.	.	.	16dd\JJ	16ff#\JJ	.
4D\	8b/	8dd\	.	.	4ee\	4ee\	.	.	8b/	8dd\	.
.	4a/	4cc#\	.	.	.	.	.	.	4a/	4cc#\	.
4E\	.	.	.	.	4ee\	4ee\	.	.	.	.	.
.	8g#X/	8b\	.	.	.	.	.	.	8g#X/	8b\	.
=28	=28	=28	=28	=28	=28	=28	=28	=28	=28	=28	=28
4AA/	16cc#\LL	16cc#\LL	1ryy	1ryy	4a/	4ee\	1ryy	1ryy	16cc#/LL	16cc#\LL	.
.	16b\	16b\	.	.	.	.	.	.	16b/	16b\	.
.	16a\	16a\	.	.	.	.	.	.	16a/	16a\	.
.	16g#X\JJ	16b\JJ	.	.	.	.	.	.	16g#X/JJ	16b\JJ	.
4A\	16a\LL	16cc#\LL	.	.	4r	4r	.	.	16a/LL	16cc#\LL	.
.	16b\	16dd\	.	.	.	.	.	.	16b/	16dd\	.
.	16cc#\	16ee\	.	.	.	.	.	.	16cc#/	16ee\	.
.	16dd\JJ	16ff#\JJ	.	.	.	.	.	.	16dd/JJ	16ff#\JJ	.
4D\	8b/	8dd\	.	.	4ee\	4ee\	.	.	8b/	8dd\	.
.	4a/	4cc#\	.	.	.	.	.	.	4a/	4cc#\	.
4E\	.	.	.	.	4ee\	4ee\	.	.	.	.	.
.	8g#X/	8b\	.	.	.	.	.	.	8g#X/	8b\	.
=29	=29	=29	=29	=29	=29	=29	=29	=29	=29	=29	=29
4AA/	16cc#\LL	16cc#\LL	1ryy	1ryy	4a/	4ee\	1ryy	1ryy	16cc#/LL	16cc#\LL	.
.	16b\	16b\	.	.	.	.	.	.	16b/	16b\	.
.	16a\	16a\	.	.	.	.	.	.	16a/	16a\	.
.	16g#X\JJ	16b\JJ	.	.	.	.	.	.	16g#X/JJ	16b\JJ	.
4A\	16a\LL	16cc#\LL	.	.	4r	4r	.	.	16a/LL	16cc#\LL	.
.	16b\	16dd\	.	.	.	.	.	.	16b/	16dd\	.
.	16cc#\	16ee\	.	.	.	.	.	.	16cc#/	16ee\	.
.	16dd\JJ	16ff#\JJ	.	.	.	.	.	.	16dd/JJ	16ff#\JJ	.
!	!	!LO:LB:g=original	!	!	!	!	!	!	!	!	!
4AA/	8ee\	8gg\	.	.	4a/	4ee\	.	.	8ee\	8gg\	.
.	4dd\	4ff#\	.	.	.	.	.	.	4dd\	4ff#\	.
4AA/	.	.	.	.	4a/	4ee\	.	.	.	.	.
.	8cc#\	8ee\	.	.	.	.	.	.	8cc#\	8ee\	.
=30	=30	=30	=30	=30	=30	=30	=30	=30	=30	=30	=30
4D/	16ff#\LL	16ff#\LL	1ryy	1ryy	4dd\	4ff#\	1ryy	1ryy	16ff#\LL	16ff#\LL	.
.	16ee\	16ee\	.	.	.	.	.	.	16ee\	16ee\	.
.	16dd\	16dd\	.	.	.	.	.	.	16dd\	16dd\	.
.	16cc#\JJ	16ee\JJ	.	.	.	.	.	.	16cc#\JJ	16ee\JJ	.
4d\	16dd\LL	16ff#\LL	.	.	4r	4r	.	.	16dd\LL	16ff#\LL	.
.	16ee\	16gg\	.	.	.	.	.	.	16ee\	16gg\	.
.	16ff#\	16aa\	.	.	.	.	.	.	16ff#\	16aa\	.
.	16gg\JJ	16bb\JJ	.	.	.	.	.	.	16gg\JJ	16bb\JJ	.
4G\	8ee\	8gg\	.	.	4a/	4ee\	.	.	8ee\	8gg\	.
.	4dd\	4ff#\	.	.	.	.	.	.	4dd\	4ff#\	.
4A\	.	.	.	.	4a/	4ee\	.	.	.	.	.
.	8cc#\	8ee\	.	.	.	.	.	.	8cc#\	8ee\	.
!	!	!	!	!	!	!	!	!	!LO:LB:g=original	!	!
=31	=31	=31	=31	=31	=31	=31	=31	=31	=31	=31	=31
8D\L	16ff#\LL	16ff#\LL	1ryy	1ryy	4dd\	4ff#\	1ryy	1ryy	16ff#\LL	16ff#\LL	.
.	16ee\	16ee\	.	.	.	.	.	.	16ee\	16ee\	.
8D\	16dd\	16dd\	.	.	.	.	.	.	16dd\	16dd\	.
.	16ee\JJ	16ee\JJ	.	.	.	.	.	.	16ee\JJ	16ee\JJ	.
8D\	16ff#\LL	16ff#\LL	.	.	4r	4r	.	.	16ff#\LL	16ff#\LL	.
.	16gg\	16gg\	.	.	.	.	.	.	16gg\	16gg\	.
8D\J	16aa\	16aa\	.	.	.	.	.	.	16aa\	16aa\	.
.	16bb\JJ	16bb\JJ	.	.	.	.	.	.	16bb\JJ	16bb\JJ	.
8C#/L	16ee\LL	16ee\LL	.	.	2r	2r	.	.	16ee\LL	16ee\LL	.
.	16dd\	16dd\	.	.	.	.	.	.	16dd\	16dd\	.
8C#/	16cc#\	16cc#\	.	.	.	.	.	.	16cc#\	16cc#\	.
.	16dd\JJ	16dd\JJ	.	.	.	.	.	.	16dd\JJ	16dd\JJ	.
8C#/	16ee\LL	16ee\LL	.	.	.	.	.	.	16ee\LL	16ee\LL	.
.	16ff#\	16ff#\	.	.	.	.	.	.	16ff#\	16ff#\	.
8C#/J	16gg#X\	16gg#X\	.	.	.	.	.	.	16gg#X\	16gg#X\	.
.	16aa\JJ	16aa\JJ	.	.	.	.	.	.	16aa\JJ	16aa\JJ	.
=32	=32	=32	=32	=32	=32	=32	=32	=32	=32	=32	=32
8BB/L	16dd\LL	16dd\LL	1ryy	1ryy	0r	0r	1ryy	1ryy	16dd\LL	16dd\LL	.
.	16cc#\	16cc#\	.	.	.	.	.	.	16cc#\	16cc#\	.
8BB/	16b\	16b\	.	.	.	.	.	.	16b\	16b\	.
.	16cc#\JJ	16cc#\JJ	.	.	.	.	.	.	16cc#\JJ	16cc#\JJ	.
8BB/	16dd\LL	16dd\LL	.	.	.	.	.	.	16dd\LL	16dd\LL	.
.	16ee\	16ee\	.	.	.	.	.	.	16ee\	16ee\	.
8BB/J	16ff#\	16ff#\	.	.	.	.	.	.	16ff#\	16ff#\	.
.	16ggn\JJ	16ggn\JJ	.	.	.	.	.	.	16ggn\JJ	16ggn\JJ	.
!	!	!	!	!	!	!	!	!	!	!LO:LB:g=original	!
8AA/L	16cc#\LL	16cc#\LL	.	.	.	.	.	.	16cc#\LL	16cc#\LL	.
.	16b\	16b\	.	.	.	.	.	.	16b\	16b\	.
8AA/	16a\	16a\	.	.	.	.	.	.	16a\	16a\	.
.	16b\JJ	16b\JJ	.	.	.	.	.	.	16b\JJ	16b\JJ	.
8AA/	16cc#\LL	16cc#\LL	.	.	.	.	.	.	16cc#\LL	16cc#\LL	.
.	16dd\	16dd\	.	.	.	.	.	.	16dd\	16dd\	.
8AA/J	16ee\	16ee\	.	.	.	.	.	.	16ee\	16ee\	.
.	16ff#\JJ	16ff#\JJ	.	.	.	.	.	.	16ff#\JJ	16ff#\JJ	.
!	!LO:LB:g=original	!	!	!	!	!	!	!	!	!	!
=33	=33	=33	=33	=33	=33	=33	=33	=33	=33	=33	=33
8G\L	16b\LL	16b\LL	1ryy	1ryy	.	.	1ryy	1ryy	16b/LL	16b/LL	.
.	16a\	16a\	.	.	.	.	.	.	16a/	16a/	.
8G\	16g\	16g\	.	.	.	.	.	.	16g/	16g/	.
.	16a\JJ	16a\JJ	.	.	.	.	.	.	16a/JJ	16a/JJ	.
8G\	16b\LL	16b\LL	.	.	.	.	.	.	16b/LL	16b\LL	.
.	16cc#\	16cc#\	.	.	.	.	.	.	16cc#/	16cc#\	.
8G\J	16dd\	16dd\	.	.	.	.	.	.	16dd/	16dd\	.
!	!	!	!	!	!	!	!	!	!	!LO:TX:t=P:problem=zbędna kreska taktowa	!
.	16ee\JJ	16ee\JJ	.	.	.	.	.	.	16ee/JJ	16ee\JJ	.
!LO:LB:g=original	!	!	!	!	!	!	!	!	!	!	!
8F#\L	16a/LL	16a/LL	.	.	.	.	.	.	16a/LL	16a/LL	.
.	16g/	16g/	.	.	.	.	.	.	16g/	16g/	.
8F#\	16f#/	16f#/	.	.	.	.	.	.	16f#/	16f#/	.
.	16g/JJ	16g/JJ	.	.	.	.	.	.	16g/JJ	16g/JJ	.
8F#\	16a/LL	16a/LL	.	.	.	.	.	.	16a/LL	16a/LL	.
.	16b/	16b/	.	.	.	.	.	.	16b/	16b/	.
8F#\J	16cc#/	16cc#/	.	.	.	.	.	.	16cc#/	16cc#/	.
.	16dd/JJ	16dd/JJ	.	.	.	.	.	.	16dd/JJ	16dd/JJ	.
=34	=34	=34	=34	=34	=34	=34	=34	=34	=34	=34	=34
8G\L	8g/L	8g/L	1ryy	1ryy	1r	1r	1ryy	1ryy	8g/L	8g/L	.
8F#\	8f#/	8f#/	.	.	.	.	.	.	8f#/	8f#/	.
8E\	8e/	8e/	.	.	.	.	.	.	8e/	8e/	.
8D\J	8d/J	8d/J	.	.	.	.	.	.	8d/J	8d/J	.
!LO:TX:t=P:problem=mixed beam	!	!	!	!	!	!	!	!	!	!	!
8A\L	8a/L	8a/L	.	.	.	.	.	.	8a/L	8a/L	.
8AA/J	8A/J	8A/J	.	.	.	.	.	.	8a/J	8a/J	.
4r	4r	4r	.	.	.	.	.	.	4r	4r	.
=35	=35	=35	=35	=35	=35	=35	=35	=35	=35	=35	=35
!	!	!	!	!	!LO:MO:mod=16ddLL	!LO:TX:a:i:mod= :t=Solo	!	!	!	!	!
00r	8d/L	8d/L	1ryy	1ryy	12dd\LL	16ff#\LL	1ryy	1ryy	0r	0r	.
!	!	!	!	!	!LO:MO:null:mod=16eeJ	!	!	!	!	!	!
.	.	.	.	.	.	16gg\J	.	.	.	.	.
!	!	!	!	!	!LO:MO:mod=.	!	!	!	!	!	!
.	.	.	.	.	12ee\J	.	.	.	.	.	.
!	!	!	!	!	!LO:MO:null:mod=8ff#J	!	!	!	!	!	!
.	8d/	8d/	.	.	.	8aa\J	.	.	.	.	.
!	!	!	!	!	!LO:MO:mod=.	!	!	!	!	!	!
.	.	.	.	.	12ff#\J	.	.	.	.	.	.
!	!	!	!	!	!LO:MO:mod=16ddLL	!	!	!	!	!	!
.	8d/	8d/	.	.	12dd\LL	16ff#\LL	.	.	.	.	.
!	!	!	!	!	!LO:MO:null:mod=16eeJ	!	!	!	!	!	!
.	.	.	.	.	.	16gg\J	.	.	.	.	.
!	!	!	!	!	!LO:MO:mod=.	!	!	!	!	!	!
.	.	.	.	.	12ee\J	.	.	.	.	.	.
!	!	!	!	!	!LO:MO:null:mod=8ff#J	!	!	!	!	!	!
.	8d/J	8d/J	.	.	.	8aa\J	.	.	.	.	.
!	!	!	!	!	!LO:MO:mod=.	!	!	!	!	!	!
.	.	.	.	.	12ff#\J	.	.	.	.	.	.
.	4d/	4d/	.	.	8gg\L	8bb\L	.	.	.	.	.
.	.	.	.	.	8ff#\	8aa\	.	.	.	.	.
.	4r	4r	.	.	8ee\	8gg\	.	.	.	.	.
.	.	.	.	.	8dd\J	8ff#\J	.	.	.	.	.
!	!	!LO:LB:g=original	!	!	!	!	!	!	!	!	!
=36	=36	=36	=36	=36	=36	=36	=36	=36	=36	=36	=36
!	!	!	!	!	!LO:MO:mod=16aLL	!	!	!	!	!	!
.	8A/L	8A/L	1ryy	1ryy	12a\LL	16ee\LL	1ryy	1ryy	.	.	.
!	!	!	!	!	!LO:MO:null:mod=16ddJ	!	!	!	!	!	!
.	.	.	.	.	.	16ff#\J	.	.	.	.	.
!	!	!	!	!	!LO:MO:mod=.	!	!	!	!	!	!
.	.	.	.	.	12dd\J	.	.	.	.	.	.
!	!	!	!	!	!LO:MO:null:mod=8eeJ	!	!	!	!	!	!
.	8A/	8A/	.	.	.	8gg\J	.	.	.	.	.
!	!	!	!	!	!LO:MO:mod=.	!	!	!	!	!	!
.	.	.	.	.	12ee\J	.	.	.	.	.	.
!	!	!	!	!	!LO:MO:mod=16aLL	!	!	!	!	!	!
.	8A/	8A/	.	.	12a\LL	16ee\LL	.	.	.	.	.
!	!	!	!	!	!LO:MO:null:mod=16ddJ	!	!	!	!	!	!
.	.	.	.	.	.	16ff#\J	.	.	.	.	.
!	!	!	!	!	!LO:MO:mod=.	!	!	!	!	!	!
.	.	.	.	.	12dd\J	.	.	.	.	.	.
!	!	!	!	!	!LO:MO:null:mod=8eeJ	!	!	!	!	!	!
.	8A/J	8A/J	.	.	.	8gg\J	.	.	.	.	.
!	!	!	!	!	!LO:MO:mod=.	!	!	!	!	!	!
.	.	.	.	.	12ee\J	.	.	.	.	.	.
.	4A/	4A/	.	.	8ff#\L	8aa\L	.	.	.	.	.
.	.	.	.	.	8ee\	8gg\	.	.	.	.	.
.	4r	4r	.	.	8dd\	8ff#\	.	.	.	.	.
.	.	.	.	.	8a\J	8ee\J	.	.	.	.	.
!	!	!	!	!	!	!LO:LB:g=original	!	!	!	!	!
=37	=37	=37	=37	=37	=37	=37	=37	=37	=37	=37	=37
!	!	!	!	!	!	!	!	!	!	!LO:SIC:s=(32ff#LLL	!
!	!	!	!	!	!	!	!	!	!	!LO:TX:a:i:mod= :t=Solo	!
.	8d/L	8d/L	1ryy	1ryy	4dd\	4ff#\	1ryy	1ryy	(>32dd\LLL	32ff#\LLL	.
.	.	.	.	.	.	.	.	.	32ee\JJ	32gg\JJ	.
!	!	!	!	!	!	!	!	!	!	!LO:SIC:s=8.aaJ)	!
.	.	.	.	.	.	.	.	.	8.ff#\J)	8.aa\J	.
.	8d/	8d/	.	.	.	.	.	.	.	.	.
!	!	!	!	!	!	!	!	!	!	!LO:SIC:s=(32ff#LLL	!
.	8d/	8d/	.	.	4r	4r	.	.	(>32dd\LLL	32ff#\LLL	.
.	.	.	.	.	.	.	.	.	32ee\JJ	32gg\JJ	.
!	!	!	!	!	!	!	!	!	!	!LO:SIC:s=8.aaJ)	!
.	.	.	.	.	.	.	.	.	8.ff#\J)	8.aa\J	.
.	8d/J	8d/J	.	.	.	.	.	.	.	.	.
.	4d/	4d/	.	.	2r	2r	.	.	8gg\L	8bb\L	.
.	.	.	.	.	.	.	.	.	8ff#\	8aa\	.
.	4r	4r	.	.	.	.	.	.	8ee\	8gg\	.
.	.	.	.	.	.	.	.	.	8dd\J	8ff#\J	.
!	!	!	!	!	!	!	!	!	!LO:LB:g=original	!	!
=38	=38	=38	=38	=38	=38	=38	=38	=38	=38	=38	=38
.	8A/L	8A/L	1ryy	1ryy	1r	1r	1ryy	1ryy	(>32cc#\LLL	(>32ee\LLL	.
.	.	.	.	.	.	.	.	.	32dd\JJ	32ff#\JJ	.
.	.	.	.	.	.	.	.	.	8.ee\J)	8.gg\J)	.
.	8A/	8A/	.	.	.	.	.	.	.	.	.
.	8A/	8A/	.	.	.	.	.	.	(>32cc#\LLL	(>32ee\LLL	.
.	.	.	.	.	.	.	.	.	32dd\JJ	32ff#\JJ	.
.	.	.	.	.	.	.	.	.	8.ee\J)	8.gg\J)	.
.	8A/J	8A/J	.	.	.	.	.	.	.	.	.
.	4A/	4A/	.	.	.	.	.	.	8ff#\L	8aa\L	.
.	.	.	.	.	.	.	.	.	8ee\	8gg\	.
.	4r	4r	.	.	.	.	.	.	8dd\	8ff#\	.
.	.	.	.	.	.	.	.	.	8cc#\J	8ee\J	.
!	!	!	!	!	!LO:LB:g=origina	!	!	!	!	!	!
=39	=39	=39	=39	=39	=39	=39	=39	=39	=39	=39	=39
!	!LO:SIC:s=(32ff#LLL	!	!	!	!	!	!	!	!	!LO:SIC:s=(32ff#LLL	!
4D/	32ff#\LLL	(>32ff#\LLL	1ryy	1ryy	2dd\	4ff#\	1ryy	1ryy	(>32ff#\LLL	32ff#\LLL	.
.	32ee\JJ	32ee\JJ	.	.	.	.	.	.	32ee\JJ	32ee\JJ	.
!	!LO:SIC:s=8.ddJ)	!	!	!	!	!	!	!	!	!LO:SIC:s=8.ddJ)	!
.	8.dd\J	8.dd\J)	.	.	.	.	.	.	8.dd\J)	8.dd\J	.
!	!LO:SIC:s=(32ff#LLL	!	!	!	!	!	!	!	!	!LO:SIC:s=(32ff#LLL	!
4d\	32ff#\LLL	(>32ff#\LLL	.	.	.	4ff#\	.	.	(>32ff#\LLL	32ff#\LLL	.
.	32ee\JJ	32ee\JJ	.	.	.	.	.	.	32ee\JJ	32ee\JJ	.
!	!LO:SIC:s=8.ddJ)	!	!	!	!	!	!	!	!	!LO:SIC:s=8.ddJ)	!
.	8.dd\J	8.dd\J)	.	.	.	.	.	.	8.dd\J)	8.dd\J	.
!	!LO:N:vis=8.	!	!	!	!	!	!	!	!	!	!
4G\	8gg\L	8gg\L	.	.	2a/	4ee\	.	.	8gg\L	8gg\L	.
.	16aa\L	16aa\L	.	.	.	.	.	.	16aa\L	16aa\L	.
.	16bb\JJ	16bb\JJ	.	.	.	.	.	.	16bb\JJ	16bb\JJ	.
4C#/	8aa\L	8aa\L	.	.	.	4ee\	.	.	8aa\L	8aa\L	.
.	8gg\J	8gg\J	.	.	.	.	.	.	8gg\J	8gg\J	.
=40	=40	=40	=40	=40	=40	=40	=40	=40	=40	=40	=40
!	!	!	!	!	!	!	!	!	!	!LO:SIC:s=(32ff#LLL	!
4D/	(>32ff#\LLL	(>32ff#\LLL	1ryy	1ryy	2dd\	4ff#\	1ryy	1ryy	(>32ff#\LLL	32ff#\LLL	.
.	32ee\JJ	32ee\JJ	.	.	.	.	.	.	32ee\JJ	32ee\JJ	.
!	!	!	!	!	!	!	!	!	!	!LO:SIC:s=8.ddJ)	!
.	8.dd\J)	8.dd\J)	.	.	.	.	.	.	8.dd\J)	8.dd\J	.
!	!LO:SIC:s=(32ff#LLL	!	!	!	!	!	!	!	!	!LO:SIC:s=(32ff#LLL	!
4d\	32ff#\LLL	(>32ff#\LLL	.	.	.	4ff#\	.	.	(>32ff#\LLL	32ff#\LLL	.
.	32ee\JJ	32ee\JJ	.	.	.	.	.	.	32ee\JJ	32ee\JJ	.
!	!LO:SIC:s=8.ddJ)	!	!	!	!	!	!	!	!	!LO:SIC:s=8.ddJ)	!
.	8.dd\J	8.dd\J)	.	.	.	.	.	.	8.dd\J)	8.dd\J	.
!	!LO:MO:mod=8eeL	!LO:MO:mod=8eeL	!	!	!	!	!	!	!	!LO:LB:g=original	!
4G\	8.ee\L	8.ee\L	.	.	2a/	4ee\	.	.	8ee\L	8ee\L	.
!	!LO:MO:null:mod=16ff#L	!LO:MO:null:mod=16ff#L	!	!	!	!	!	!	!	!	!
.	.	.	.	.	.	.	.	.	16ff#\L	16ff#\L	.
!	!LO:MO:mod=16ggJJ	!LO:MO:mod=16ggJJ	!	!	!	!	!	!	!	!	!
.	32ff#\LL	32ff#\LL	.	.	.	.	.	.	16gg\JJ	16gg\JJ	.
!	!LO:MO:mod=.	!LO:MO:mod=.	!	!	!	!	!	!	!	!	!
.	32gg\JJJ	32gg\JJJ	.	.	.	.	.	.	.	.	.
4A\	8ff#\L	8ff#\L	.	.	.	4ee\	.	.	8ff#\L	8ff#\L	.
.	8ee\J	8ee\J	.	.	.	.	.	.	8ee\J	8ee\J	.
=41	=41	=41	=41	=41	=41	=41c	=41!|:	=41!|:	=41	=41	=41
!LO:TX:t=P:problem=tt. 39-40 oznaczone znakiem repetycji	!LO:TX:t=P:problem=brak tt. 41-42	!LO:TX:t=P:problem=brak tt. 41-42	!	!	!LO:TX:t=P:problem=brak tt. 41-42	!LO:TX:t=P:problem=tt. 39-40 oznaczone znakiem repetycji	!	!	!	!LO:TX:t=P:problem=skreślone pół taktu	!
!	!LO:MO:mod=(32ff#@LLL	!LO:MO:mod=(32ff#@LLL	!	!	!LO:MO:mod=2dd@	!	!	!	!	!LO:SIC:s=(32ff#LLL	!
4D/yy	1ryy	1ryy	1ryy	1ryy	1ryy	4ff#\yy	1ryy	1ryy	(>32ff#\LLL	32ff#\LLL	.
!	!LO:MO:null:mod=32ee@JJ	!LO:MO:null:mod=32ee@JJ	!	!	!	!	!	!	!	!	!
.	.	.	.	.	.	.	.	.	32ee\JJ	32ee\JJ	.
!	!LO:MO:null:mod=8.dd@J)	!LO:MO:null:mod=8.dd@J)	!	!	!	!	!	!	!	!LO:SIC:s=8.ddJ)	!
.	.	.	.	.	.	.	.	.	8.dd\J)	8.dd\J	.
!	!LO:MO:null:mod=(32ff#@LLL	!LO:MO:null:mod=(32ff#@LLL	!	!	!	!	!	!	!	!	!
4d\yy	.	.	.	.	.	4ff#\yy	.	.	(>32ff#\LLL	(>32ff#\LLL	.
!	!LO:MO:null:mod=32ee@JJ	!LO:MO:null:mod=32ee@JJ	!	!	!	!	!	!	!	!	!
.	.	.	.	.	.	.	.	.	32ee\JJ	32ee\JJ	.
!	!LO:MO:null:mod=8.dd@J)	!LO:MO:null:mod=8.dd@J)	!	!	!	!	!	!	!	!	!
.	.	.	.	.	.	.	.	.	8.dd\J)	8.dd\J)	.
!	!LO:MO:null:mod=8gg@L	!LO:MO:null:mod=8gg@L	!	!	!LO:MO:null:mod=2a@	!	!	!	!	!	!
4G\yy	.	.	.	.	.	4ee\yy	.	.	8gg\L	8gg\L	.
!	!LO:MO:null:mod=16aa@L	!LO:MO:null:mod=16aa@L	!	!	!	!	!	!	!	!	!
.	.	.	.	.	.	.	.	.	16aa\L	16aa\L	.
!	!LO:MO:null:mod=16bb@JJ	!LO:MO:null:mod=16bb@JJ	!	!	!	!	!	!	!	!	!
.	.	.	.	.	.	.	.	.	16bb\JJ	16bb\JJ	.
!	!LO:MO:null:mod=8aa@L	!LO:MO:null:mod=8aa@L	!	!	!	!	!	!	!	!	!
4C#/yy	.	.	.	.	.	4ee\yy	.	.	8aa\L	8aa\L	.
!	!LO:MO:null:mod=8gg@J	!LO:MO:null:mod=8gg@J	!	!	!	!	!	!	!	!	!
.	.	.	.	.	.	.	.	.	8gg\J	8gg\J	.
=42	=42	=42	=42	=42	=42	=42	=42	=42	=42	=42	=42
!	!LO:MO:mod=(32ff#@LLL	!LO:MO:mod=(32ff#@LLL	!	!	!LO:MO:mod=2dd@	!	!	!	!	!LO:SIC:s=(32ff#LLL	!
4D/yy	1ryy	1ryy	1ryy	1ryy	1ryy	4ff#\yy	1ryy	1ryy	(>32ff#\LLL	32ff#\LLL	.
!	!LO:MO:null:mod=32ee@JJ	!LO:MO:null:mod=32ee@JJ	!	!	!	!	!	!	!	!	!
.	.	.	.	.	.	.	.	.	32ee\JJ	32ee\JJ	.
!	!LO:MO:null:mod=8.dd@J)	!LO:MO:null:mod=8.dd@J)	!	!	!	!	!	!	!	!LO:SIC:s=8.ddJ)	!
.	.	.	.	.	.	.	.	.	8.dd\J)	8.dd\J	.
!	!LO:MO:null:mod=(32ff#@LLL	!LO:MO:null:mod=(32ff#@LLL	!	!	!	!	!	!	!	!LO:SIC:s=(32ff#LLL	!
4d\yy	.	.	.	.	.	4ff#\yy	.	.	(>32ff#\LLL	32ff#\LLL	.
!	!LO:MO:null:mod=32ee@JJ	!LO:MO:null:mod=32ee@JJ	!	!	!	!	!	!	!	!	!
.	.	.	.	.	.	.	.	.	32ee\JJ	32ee\JJ	.
!	!LO:MO:null:mod=8.dd@J)	!LO:MO:null:mod=8.dd@J)	!	!	!	!	!	!	!	!LO:SIC:s=8.ddJ)	!
.	.	.	.	.	.	.	.	.	8.dd\J)	8.dd\J	.
!	!LO:MO:null:mod=8ee@L	!LO:MO:null:mod=8ee@L	!	!	!LO:MO:null:mod=2a@	!	!	!	!	!	!
4G\yy	.	.	.	.	.	4ee\yy	.	.	8ee\L	8ee\L	.
!	!LO:MO:null:mod=16ff#@L	!LO:MO:null:mod=16ff#@L	!	!	!	!	!	!	!	!	!
.	.	.	.	.	.	.	.	.	16ff#\L	16ff#\L	.
!	!LO:MO:null:mod=16gg@JJ	!LO:MO:null:mod=16gg@JJ	!	!	!	!	!	!	!	!	!
.	.	.	.	.	.	.	.	.	16gg\JJ	16gg\JJ	.
!	!LO:MO:null:mod=8ff#@L	!LO:MO:null:mod=8ff#@L	!	!	!	!	!	!	!	!	!
4A\yy	.	.	.	.	.	4ee\yy	.	.	8ff#\L	8ff#\L	.
!	!LO:MO:null:mod=8ee@J	!LO:MO:null:mod=8ee@J	!	!	!	!	!	!	!	!	!
.	.	.	.	.	.	.	.	.	8ee\J	8ee\J	.
=43	=43	=43	=43	=43	=43	=43	=43	=43	=43	=43	=43
8D\L	16dd\LL	16dd\LL	1ryy	1ryy	8dd\L	8ff#\L	1ryy	1ryy	8dd\L	8ff#\L	.
.	16ddd\	16ddd\	.	.	.	.	.	.	.	.	.
8D\	16aa\	16aa\	.	.	8dd\	8ff#\	.	.	8dd\	8ff#\	.
.	16ff#\JJ	16ff#\JJ	.	.	.	.	.	.	.	.	.
8D\	16dd\LL	16dd\LL	.	.	8dd\	8ff#\	.	.	8dd\	8ff#\	.
.	16aa\	16aa\	.	.	.	.	.	.	.	.	.
8D\J	16ff#\	16ff#\	.	.	8dd\J	8ff#\J	.	.	8dd\J	8ff#\J	.
.	16dd\JJ	16dd\JJ	.	.	.	.	.	.	.	.	.
!	!LO:LB:g=original	!	!	!	!	!	!	!	!	!	!
8D\L	16a\LL	16a\LL	.	.	8dd\L	8ff#\L	.	.	8dd\L	8ff#\L	.
.	16ff#\	16ff#\	.	.	.	.	.	.	.	.	.
8D\	16dd\	16dd\	.	.	8dd\	8ff#\	.	.	8dd\	8ff#\	.
.	16a\JJ	16a\JJ	.	.	.	.	.	.	.	.	.
8D\	16f#/LL	16f#/LL	.	.	8dd\	8ff#\	.	.	8dd\	8ff#\	.
.	16a/	16a/	.	.	.	.	.	.	.	.	.
8D\J	16f#/	16f#/	.	.	8dd\J	8ff#\J	.	.	8dd\J	8ff#\J	.
.	16d/JJ	16d/JJ	.	.	.	.	.	.	.	.	.
!	!	!	!	!	!	!	!	!	!LO:LB:g=original	!	!
=44	=44	=44	=44	=44	=44	=44	=44	=44	=44	=44	=44
*	*^	*^	*	*	*	*	*	*	*	*	*
*	*	*^	*	*^	*	*	*	*	*	*	*	*	*
!	!	!LO:MO:mod=1ryyyy	!LO:MO:mod=1ryyyy	!	!LO:MO:mod=1ryyyy	!LO:MO:mod=1ryyyy	!	!	!	!	!	!	!	!	!
4G\	4gg 4b 4d 4G/	2ryy	2ryy	4gg 4b 4d 4G/	2ryy	2ryy	1ryy	1ryy	4ee\	4gg\	1ryy	1ryy	4ee\	4gg\	.
!	!	!	!	!	!	!	!	!	!	!LO:TX:a:mod= :t=d	!	!	!	!	!
4A\	4ee 4cc# 4a/	.	.	4ee 4cc# 4a/	.	.	.	.	4a/	4ee\	.	.	4cc#\	4ee\	.
!	!LO:MO:mod=16ff# 16a 16d	!LO:MO:mod=.	!LO:MO:mod=.	!LO:MO:mod=16ff# 16a 16d	!LO:MO:mod=.	!LO:MO:mod=.	!	!	!	!	!	!	!	!	!
8D\L	16ff#/	16a/	16d/	16ff#/	16a/	16d/	.	.	8dd\L	8ff#\L	.	.	8dd\L	8ff#\L	.
!	!	!LO:MO:mod=.	!LO:MO:mod=.	!	!LO:MO:mod=.	!LO:MO:mod=.	!	!	!	!	!	!	!	!	!
.	16dd\LL	16ryy	16ryy	16dd\LL	16ryy	16ryy	.	.	.	.	.	.	.	.	.
!	!	!LO:MO:mod=.	!LO:MO:mod=.	!	!LO:MO:mod=.	!LO:MO:mod=.	!	!	!	!	!	!	!	!	!
8D\	16a\	8ryy	8ryy	16a\	8ryy	8ryy	.	.	8dd\	8ff#\	.	.	8dd\	8ff#\	.
.	16f#\JJ	.	.	16f#\JJ	.	.	.	.	.	.	.	.	.	.	.
!	!	!LO:MO:mod=.	!LO:MO:mod=.	!	!LO:MO:mod=.	!LO:MO:mod=.	!	!	!	!	!	!	!	!	!
8D\	16d/LL	4ryy	4ryy	16d/LL	4ryy	4ryy	.	.	8dd\	8ff#\	.	.	8dd\	8ff#\	.
.	16a/	.	.	16a/	.	.	.	.	.	.	.	.	.	.	.
8D\J	16f#/	.	.	16f#/	.	.	.	.	8dd\J	8ff#\J	.	.	8dd\J	8ff#\J	.
.	16d/JJ	.	.	16d/JJ	.	.	.	.	.	.	.	.	.	.	.
*	*	*	*	*v	*v	*v	*	*	*	*	*	*	*	*	*
*	*v	*v	*v	*	*	*	*	*	*	*	*	*	*
!	!	!	!LO:LB:g=original	!	!	!	!	!	!	!	!
=45	=45	=45	=45	=45	=45	=45	=45	=45	=45	=45	=45
4G\	4gg 4b 4d 4G/	4gg 4b 4d 4G/	1ryy	1ryy	4ee\	4gg\	1ryy	1ryy	4ee\	4gg\	.
4A\	4ee 4cc# 4a/	4ee 4cc# 4a/	.	.	4a/	4ee\	.	.	4cc#\	4ee\	.
4D/	4ff# 4a 4d/	4ff# 4a 4d/	.	.	4dd\	4ff#\	.	.	4dd\	4ff#\	.
4d\	4ff# 4a 4d/	4ff# 4a 4d/	.	.	4dd\	4ff#\	.	.	4dd\	4ff#\	.
=46	=46	=46	=46	=46	=46	=46	=46	=46	=46	=46	=46
4G\	4gg 4b 4d 4G/	4gg 4b 4d 4G/	1ryy	1ryy	4ee\	4gg\	1ryy	1ryy	4ee\	4gg\	.
4A\	4ee 4cc# 4a/	4ee 4cc# 4a/	.	.	4a/	4ee\	.	.	4cc#\	4ee\	.
8D\L	8ff#\L	8ff#\L	.	.	8dd\L	8ff#\L	.	.	8dd\L	8ff#\L	.
16D\L	16a\L	16a\L	.	.	16dd\L	16ff#\L	.	.	16dd\L	16ff#\L	.
16D\JJ	16a\JJ	16a\JJ	.	.	16dd\JJ	16ff#\JJ	.	.	16dd\JJ	16ff#\JJ	.
8D\L	8a/L	8a/L	.	.	8dd\L	8ff#\L	.	.	8dd\L	8ff#\L	.
8D\J	8a/J	8a/J	.	.	8dd\J	8ff#\J	.	.	8dd\J	8ff#\J	.
=47	=47	=47	=47	=47	=47	=47	=47	=47	=47	=47	=47
4D\	4a/	4a/	1ryy	1ryy	4dd\	4ff#\	1ryy	1ryy	4dd\	4ff#\	.
4r	4r	4r	.	.	4r	4r	.	.	4r	4r	.
2r	2r	2r	.	.	2r	2r	.	.	2r	2r	.
!LO:MO:mod===	!LO:MO:mod===	!LO:MO:mod===	!	!	!LO:MO:mod===	!LO:MO:mod===	!	!	!LO:MO:mod===	!LO:MO:mod===	!
==;	==;	==;	==	==	==;	==;	==	==	==;;	==;;	==
*-	*-	*-	*-	*-	*-	*-	*-	*-	*-	*-	*-
!!!system-decoration: [(ww)][(bras)][vox][(str)][klav]
!!!RDF**kern: > = above
!!!RDF**kern: < = below
!!LO:MO:mod
!! !!!RDF**kern: @ = marked note, color=grey
!!LO:MO:end
!!!filter-modern: shed -e "s/LO:N:/LO:n:$1/L" | shed -e "s/^(\d+[\/\\]right)/$1yy/I" | shed -e "s/yy//" | shed -e "s/LO:TUP:/LO:tup:$1/L" | shed -e "s/^(X?)tuplet$/$1TUPLET/I" | shed -e "s/TX(.*):t=P:/tx$1:t=P:/LG" | shed -k -e "s/([^a-gA-Gn#X-])[<>]/$1/g" | sic -sq | modori -m | autostem -r | tie -s | humtr -p
!!!ENC: Andrzej Kubiczek
!!!END: 2020-05-17
!!!EED: Mateusz Mrugas
!!!EEV: 2020-10-03
!!!EED-revision: Andrzej Kubiczek
!!!EEV-revision: 2025-03-13
!!!ENC-modern: Andrzej Kubiczek
!!!END-modern: 2025-03-18
